polaris-icons/icons/newicons/ViewMajor.svg

<svg width="20" height="20" viewBox="0 0 20 20" fill="none" xmlns="http://www.w3.org/2000/svg">
<path fill-rule="evenodd" clip-rule="evenodd" d="M13 10C13 11.6569 11.6569 13 10 13C8.34315 13 7 11.6569 7 10C7 8.34315 8.34315 7 10 7C11.6569 7 13 8.34315 13 10ZM11.5 10C11.5 10.8284 10.8284 11.5 10 11.5C9.17157 11.5 8.5 10.8284 8.5 10C8.5 9.17157 9.17157 8.5 10 8.5C10.8284 8.5 11.5 9.17157 11.5 10Z" fill="black"/>
<path fill-rule="evenodd" clip-rule="evenodd" d="M18 10C18 11 14.4183 16 10 16C5.58172 16 2 11 2 10C2 9 5.58172 4 10 4C14.4183 4 18 9 18 10ZM16.522 9.80133C16.5225 9.79967 16.5227 9.79886 16.5227 9.79889C16.5226 9.79892 16.5218 9.80123 16.5207 9.80571C16.5213 9.80388 16.5217 9.80242 16.522 9.80133ZM16.1219 9.47065C16.2638 9.68427 16.3668 9.86341 16.4353 10C16.3668 10.1366 16.2638 10.3157 16.1219 10.5294C15.78 11.044 15.267 11.6765 14.6239 12.2874C13.3012 13.5436 11.6552 14.5 10 14.5C8.34484 14.5 6.69875 13.5436 5.37614 12.2874C4.73295 11.6765 4.21999 11.044 3.8781 10.5294C3.73619 10.3157 3.6332 10.1366 3.56466 10C3.6332 9.86341 3.73619 9.68427 3.8781 9.47065C4.21999 8.95602 4.73295 8.3235 5.37614 7.71262C6.69875 6.45644 8.34484 5.5 10 5.5C11.6552 5.5 13.3012 6.45644 14.6239 7.71262C15.267 8.3235 15.78 8.95602 16.1219 9.47065Z" fill="black"/>
</svg>

<svg viewBox="0 0 20 20" fill="none" xmlns="http://www.w3.org/2000/svg"><path fill-rule="evenodd" clip-rule="evenodd" d="M13 10a3 3 0 1 1-6 0 3 3 0 0 1 6 0Zm-1.5 0a1.5 1.5 0 1 1-3 0 1.5 1.5 0 0 1 3 0Z" fill="#000"/><path fill-rule="evenodd" clip-rule="evenodd" d="M18 10c0 1-3.582 6-8 6s-8-5-8-6 3.582-6 8-6 8 5 8 6Zm-1.478-.199v-.002l-.001.007.001-.005Zm-.4-.33c.142.213.245.392.313.529a5.202 5.202 0 0 1-.313.53 10.611 10.611 0 0 1-1.498 1.757c-1.323 1.257-2.969 2.213-4.624 2.213-1.655 0-3.301-.956-4.624-2.213a10.607 10.607 0 0 1-1.498-1.758 5.21 5.21 0 0 1-.313-.529c.068-.137.171-.316.313-.53.342-.514.855-1.147 1.498-1.757 1.323-1.257 2.969-2.213 4.624-2.213 1.655 0 3.301.956 4.624 2.213a10.61 10.61 0 0 1 1.498 1.758Z" fill="#000"/></svg>
